static/smile.svg

<?xml version="1.0" encoding="utf-8"?><!-- Uploaded to: SVG Repo, www.svgrepo.com, Generator: SVG Repo Mixer Tools -->
<svg width="800px" height="800px" viewBox="0 0 24 24" fill="none" xmlns="http://www.w3.org/2000/svg">
<path fill-rule="evenodd" clip-rule="evenodd" d="M12 2.75C6.89137 2.75 2.75 6.89137 2.75 12C2.75 17.1086 6.89137 21.25 12 21.25C17.1086 21.25 21.25 17.1086 21.25 12C21.25 6.89137 17.1086 2.75 12 2.75ZM1.25 12C1.25 6.06294 6.06294 1.25 12 1.25C17.9371 1.25 22.75 6.06294 22.75 12C22.75 17.9371 17.9371 22.75 12 22.75C6.06294 22.75 1.25 17.9371 1.25 12ZM8.39747 15.5534C8.64413 15.2206 9.11385 15.1508 9.44661 15.3975C10.175 15.9373 11.0541 16.25 12 16.25C12.9459 16.25 13.825 15.9373 14.5534 15.3975C14.8862 15.1508 15.3559 15.2206 15.6025 15.5534C15.8492 15.8862 15.7794 16.3559 15.4466 16.6025C14.4742 17.3233 13.285 17.75 12 17.75C10.715 17.75 9.5258 17.3233 8.55339 16.6025C8.22062 16.3559 8.15082 15.8862 8.39747 15.5534Z" fill="#1C274C"/>
<path d="M16 10.5C16 11.3284 15.5523 12 15 12C14.4477 12 14 11.3284 14 10.5C14 9.67157 14.4477 9 15 9C15.5523 9 16 9.67157 16 10.5Z" fill="#1C274C"/>
<path d="M10 10.5C10 11.3284 9.55229 12 9 12C8.44772 12 8 11.3284 8 10.5C8 9.67157 8.44772 9 9 9C9.55229 9 10 9.67157 10 10.5Z" fill="#1C274C"/>
</svg>

<svg xmlns="http://www.w3.org/2000/svg" width="800" height="800" fill="none" viewBox="0 0 24 24"><path fill="currentColor" fill-rule="evenodd" d="M12 2.75a9.25 9.25 0 1 0 0 18.5 9.25 9.25 0 0 0 0-18.5M1.25 12a10.75 10.75 0 1 1 21.5 0 10.75 10.75 0 0 1-21.5 0m7.15 3.55a.75.75 0 0 1 1.05-.15 4.3 4.3 0 0 0 5.1 0 .75.75 0 1 1 .9 1.2 5.8 5.8 0 0 1-6.9 0 .75.75 0 0 1-.15-1.05" clip-rule="evenodd"/><path fill="currentColor" d="M16 10.5c0 .83-.45 1.5-1 1.5s-1-.67-1-1.5.45-1.5 1-1.5 1 .67 1 1.5M10 10.5c0 .83-.45 1.5-1 1.5s-1-.67-1-1.5S8.45 9 9 9s1 .67 1 1.5"/></svg>
